assets/img/logo-braze-stroked-white.svg

<svg viewBox="0 0 110 110" xmlns="http://www.w3.org/2000/svg"><path d="m49.7 63c.9-8.6 6.3-15.6 12.6-15.6s9.7 7 8.8 15.6-6.1 15.7-12 15.7-10.7-5.4-9.4-15.7m5.3 39a46.9 46.9 0 0 1 -36.2-17c7.8 2.5 16.5.3 23.3-6.4a22.4 22.4 0 0 0 2-2.3c3.1 6.7 9.1 10.1 15.1 10.1 10.2 0 18.8-10.5 19.8-23.5s-6.3-23.3-16-23.3a18.9 18.9 0 0 0 -10 2.7l3-17.5a4.9 4.9 0 0 0 -.9-4c-.9-1.4-1.7-2-2.9-2h-14a1.7 1.7 0 0 0 -1.6 1.5 40 40 0 0 0 -.8 5c-.1 1.1.7 1.5 1.6 1.5h10.2c-1.6 10-4.8 29.4-5.7 34.3a24.7 24.7 0 0 1 -6.5 12.3c-5.6 5.6-15.9 6.9-22 .8-2.1-2.2-5.4-7.6-5.4-19.2a47 47 0 1 1 47 47m0-102a55 55 0 1 0 55 55 55 55 0 0 0 -55-55" fill="#fff"/></svg>

<svg xmlns="http://www.w3.org/2000/svg" viewBox="0 0 110 110"><defs><style>.cls-1{fill:#FFFFFF;}</style></defs><title>Asset 1</title><g id="Layer_2" data-name="Layer 2"><g id="Layer_1-2" data-name="Layer 1"><path class="cls-1" d="M49.7,63c.9-8.6,6.3-15.6,12.6-15.6S72,54.4,71.1,63,65,78.7,59.1,78.7,48.4,73.3,49.7,63M55,102A46.9,46.9,0,0,1,18.8,85c7.8,2.5,16.5.3,23.3-6.4a22.4,22.4,0,0,0,2-2.3c3.1,6.7,9.1,10.1,15.1,10.1C69.4,86.4,78,75.9,79,62.9S72.7,39.6,63,39.6a18.9,18.9,0,0,0-10,2.7l3-17.5a4.9,4.9,0,0,0-.9-4c-.9-1.4-1.7-2-2.9-2h-14a1.7,1.7,0,0,0-1.6,1.5,40,40,0,0,0-.8,5c-.1,1.1.7,1.5,1.6,1.5H47.6c-1.6,10-4.8,29.4-5.7,34.3a24.7,24.7,0,0,1-6.5,12.3c-5.6,5.6-15.9,6.9-22,.8C11.3,72,8,66.6,8,55a47,47,0,1,1,47,47M55,0a55,55,0,1,0,55,55A55,55,0,0,0,55,0"/></g></g></svg>
